img/cloud-cases.svg

<svg viewBox="0 0 895 176" fill="none" xmlns="http://www.w3.org/2000/svg" preserveAspectRatio="none">
<path d="M112.856 8.00806L784.129 19.3652L771.871 167.765H158.963L112.856 8.00806Z" fill="black"/>
<path d="M160.648 160.435L153.336 157.462L104.24 1L765.988 14.3791L773.823 18.0956" stroke="black"/>
<path d="M17.0666 13.0329L46.9903 31.6068C38.6937 24.4266 21.8004 1.84687 19.3411 2.61174C17.3736 3.22363 17.005 9.81415 17.0666 13.0329Z" fill="black"/>
<path d="M8.09008 66.4363L53.2274 70.8218C39.2351 67.691 4.95245 53.809 2.91022 55.6096C1.27644 57.0501 5.68272 63.4276 8.09008 66.4363Z" fill="black"/>
<path d="M12.6069 126.04L55.8907 112.445C41.7881 115.027 4.83298 115.631 3.64765 118.088C2.69938 120.054 9.22535 124.208 12.6069 126.04Z" fill="black"/>
<path d="M49.0692 174.171L69.8289 156.616C62.5892 160.927 42.0304 167.527 41.9989 169.597C41.9737 171.253 46.7019 173.337 49.0692 174.171Z" fill="black"/>
<path d="M877.933 13.0329L848.01 31.6068C856.306 24.4266 873.2 1.84687 875.659 2.61174C877.626 3.22363 877.995 9.81415 877.933 13.0329Z" fill="black"/>
<path d="M886.91 66.4363L841.773 70.8218C855.765 67.691 890.048 53.809 892.09 55.6096C893.724 57.0501 889.317 63.4276 886.91 66.4363Z" fill="black"/>
<path d="M882.393 126.04L839.109 112.445C853.212 115.027 890.167 115.631 891.352 118.088C892.301 120.054 885.775 124.208 882.393 126.04Z" fill="black"/>
<path d="M845.931 174.171L825.171 156.616C832.411 160.927 852.97 167.527 853.001 169.597C853.026 171.253 848.298 173.337 845.931 174.171Z" fill="black"/>
</svg>

<svg viewBox="0 0 895 176" fill="none" xmlns="http://www.w3.org/2000/svg" preserveAspectRatio="none"><path d="M112.856 8.008l671.273 11.357-12.258 148.4H158.963L112.856 8.008z" fill="#000"/><path d="M160.648 160.435l-7.312-2.973L104.24 1l661.748 13.38 7.835 3.716" stroke="#000"/><path d="M17.067 13.033L46.99 31.607c-8.296-7.18-25.19-29.76-27.649-28.995-1.967.612-2.336 7.202-2.274 10.42zM8.09 66.436l45.137 4.386C39.235 67.69 4.952 53.809 2.91 55.61c-1.634 1.44 2.773 7.818 5.18 10.826zm4.517 59.604l43.284-13.595c-14.103 2.582-51.058 3.186-52.243 5.643-.949 1.966 5.577 6.12 8.959 7.952zm36.463 48.131l20.759-17.555c-7.24 4.311-27.799 10.911-27.83 12.981-.025 1.656 4.703 3.74 7.07 4.574zM877.933 13.033L848.01 31.607c8.296-7.18 25.19-29.76 27.649-28.995 1.967.612 2.336 7.202 2.274 10.42zm8.977 53.403l-45.137 4.386c13.992-3.131 48.275-17.013 50.317-15.212 1.634 1.44-2.773 7.818-5.18 10.826zm-4.517 59.604l-43.284-13.595c14.103 2.582 51.058 3.186 52.243 5.643.949 1.966-5.577 6.12-8.959 7.952zm-36.462 48.131l-20.76-17.555c7.24 4.311 27.799 10.911 27.83 12.981.025 1.656-4.703 3.74-7.07 4.574z" fill="#000"/></svg>
